icons/inbox-unarchive-fill.svg

<svg xmlns="http://www.w3.org/2000/svg" width="24" height="24" fill="none"><g clip-path="url(#a)"><g><path fill="#121212" d="M20 3L22 7V20C22 20.2652 21.8946 20.5196 21.7071 20.7071C21.5196 20.8946 21.2652 21 21 21H3C2.73478 21 2.48043 20.8946 2.29289 20.7071C2.10536 20.5196 2 20.2652 2 20V7.004L4 3H20ZM12 10L8 14H11V18H13V14H16L12 10ZM18.764 5H5.236L4.237 7H19.764L18.764 5Z"/></g></g><defs><clipPath id="a"><rect width="24" height="24" fill="white"/></clipPath></defs></svg>

<svg width="24" height="24" fill="none" xmlns="http://www.w3.org/2000/svg"><g clip-path="url(#a)"><path d="m20 3 2 4v13a1 1 0 0 1-1 1H3a1 1 0 0 1-1-1V7.004L4 3h16Zm-8 7-4 4h3v4h2v-4h3l-4-4Zm6.764-5H5.236l-.999 2h15.527l-1-2Z" /></g><defs><clipPath id="a"><path fill="#fff" d="M0 0h24v24H0z"/></clipPath></defs></svg>
